icons/Highlighter.svg

<svg width="24" height="24" viewBox="0 0 24 24" fill="none" xmlns="http://www.w3.org/2000/svg">
<path fill-rule="evenodd" clip-rule="evenodd" d="M14.5543,3.91101c1.0949,-0.8321 2.6361,-0.7275 3.6085,0.24491l2.1273,2.12728c0.9724,0.97241 1.077,2.51365 0.2449,3.60852l-4.8215,6.34408l-0.3207,0.422c-0.4556,0.5995 -1.1373,0.986 -1.8857,1.0692l-1.7149,0.1905c-0.2286,0.0254 -0.4418,0.1279 -0.6044,0.2905c-0.4788,0.4788 -1.1812,0.5978 -1.77108,0.357l-0.82673,0.8268c-0.23494,0.2349 -0.55374,0.3666 -0.88598,0.3661l-3.50269,-0.0059c-1.10993,-0.0018 -1.66705,-1.3416 -0.88573,-2.1299l2.56667,-2.5897c-0.24245,-0.5906 -0.12386,-1.2945 0.35575,-1.7741c0.16267,-0.1627 0.26513,-0.3759 0.29053,-0.6045l0.19054,-1.7148c0.08316,-0.7485 0.46963,-1.43013 1.0692,-1.88581l0.42197,-0.32069zM4.80218,18.253l2.80054,0.0047l0.66369,-0.6637l-1.41183,-1.4118zM10.1271,17.1474c0.4035,-0.4036 0.9323,-0.6577 1.4995,-0.7207l1.7148,-0.1906c0.299,-0.0332 0.5744,-0.1728 0.7774,-0.3911l-5.51776,-5.5177c-0.21827,0.2029 -0.35792,0.4784 -0.39113,0.7773l-0.19054,1.7148c-0.06302,0.5672 -0.31718,1.096 -0.7207,1.4995c-0.05137,0.0514 -0.05137,0.1347 0,0.1861l0.439,0.439l1.76618,1.7661l0.43722,0.4373c0.05137,0.0513 0.13463,0.0513 0.18603,0zM17.1022,5.21658c-0.442,-0.44201 -1.1426,-0.48955 -1.6403,-0.11132l-5.65995,4.30158l5.23725,5.23726l4.3016,-5.66c0.3782,-0.49767 0.3307,-1.19823 -0.1113,-1.64024zM20,18.75c0.4142,0 0.75,0.3358 0.75,0.75c0,0.4142 -0.3358,0.75 -0.75,0.75h-6.5005c-0.4142,0 -0.75,-0.3358 -0.75,-0.75c0,-0.4142 0.3358,-0.75 0.75,-0.75z" fill="#002B51"/>
</svg>

<svg width="24" height="24" viewBox="0 0 24 24" fill="none" xmlns="http://www.w3.org/2000/svg">
<path fill-rule="evenodd" clip-rule="evenodd" d="M14.5543 3.91101C15.6492 3.07891 17.1904 3.18351 18.1628 4.15592L20.2901 6.2832C21.2625 7.25561 21.3671 8.79685 20.535 9.89172L15.7135 16.2358L15.3928 16.6578C14.9372 17.2573 14.2555 17.6438 13.5071 17.727L11.7922 17.9175C11.5636 17.9429 11.3504 18.0454 11.1878 18.208C10.709 18.6868 10.0066 18.8058 9.41672 18.565L8.58999 19.3918C8.35505 19.6267 8.03625 19.7584 7.70401 19.7579L4.20132 19.752C3.09139 19.7502 2.53427 18.4104 3.31559 17.6221L5.88226 15.0324C5.63981 14.4418 5.7584 13.7379 6.23801 13.2583C6.40068 13.0956 6.50314 12.8824 6.52854 12.6538L6.71908 10.939C6.80224 10.1905 7.18871 9.50887 7.78828 9.05319L8.21025 8.7325L14.5543 3.91101ZM6.85458 16.1822L8.26641 17.594L7.60272 18.2577L4.80218 18.253L6.85458 16.1822ZM9.94107 17.1474L9.50385 16.7101L7.73767 14.944L7.29867 14.505C7.2473 14.4536 7.2473 14.3703 7.29867 14.3189C7.70219 13.9154 7.95635 13.3866 8.01937 12.8194L8.20991 11.1046C8.24312 10.8057 8.38277 10.5302 8.60104 10.3273L14.1188 15.845C13.9158 16.0633 13.6404 16.2029 13.3414 16.2361L11.6266 16.4267C11.0594 16.4897 10.5306 16.7438 10.1271 17.1474C10.0757 17.1987 9.99244 17.1987 9.94107 17.1474ZM17.1022 5.21658C16.6602 4.77457 15.9596 4.72703 15.4619 5.10526L9.80195 9.40684L15.0392 14.6441L19.3408 8.9841C19.719 8.48643 19.6715 7.78587 19.2295 7.34386L17.1022 5.21658ZM13.4995 18.75C13.0853 18.75 12.7495 19.0858 12.7495 19.5C12.7495 19.9142 13.0853 20.25 13.4995 20.25H20C20.4142 20.25 20.75 19.9142 20.75 19.5C20.75 19.0858 20.4142 18.75 20 18.75H13.4995Z" fill="#002B51"/>
</svg>
